apps/app.mento.org/public/tokens/cCOP.svg

<svg width="40" height="40" viewBox="0 0 40 40" fill="none" xmlns="http://www.w3.org/2000/svg">
<g clip-path="url(#clip0_4004_57048)">
<path d="M20 40C31.0457 40 40 31.0457 40 20C40 8.95431 31.0457 0 20 0C8.95431 0 0 8.95431 0 20C0 31.0457 8.95431 40 20 40Z" fill="#FDF6EF"/>
<path d="M6.06867 19.6084C6.06867 19.958 6.08227 20.3044 6.10707 20.6476H9.99187C9.95667 20.3044 9.93827 19.958 9.93827 19.6084C9.93827 16.934 10.9799 14.4196 12.8711 12.5284C13.6103 11.7892 14.4447 11.1804 15.3463 10.7124V6.50836C9.94227 8.40756 6.06787 13.5548 6.06787 19.6076L6.06867 19.6084Z" fill="#DF9806"/>
<path d="M12.8712 26.687C11.2272 25.043 10.2256 22.9278 9.99198 20.6462H6.10718C6.31118 23.407 7.32318 25.9422 8.90638 28.0182H14.5136C13.9272 27.6374 13.3768 27.1934 12.8704 26.687H12.8712Z" fill="#176092"/>
<path d="M27.0305 26.6881C26.5249 27.1937 25.9737 27.6385 25.3873 28.0193H30.9945C31.8457 26.9033 32.5313 25.6545 33.0161 24.3097H28.7961C28.3353 25.1745 27.7433 25.9761 27.0305 26.6881Z" fill="#186092"/>
<path d="M19.9505 29.6209C17.9913 29.6209 16.1185 29.0617 14.5137 28.0193H8.90649C11.4425 31.3449 15.4457 33.4913 19.9505 33.4913C24.4553 33.4913 28.4585 31.3449 30.9945 28.0193H25.3873C23.7825 29.0617 21.9097 29.6209 19.9505 29.6209Z" fill="#C3221A"/>
<path d="M20.0777 21.6199C19.6689 21.8239 18.8513 22.0287 17.8041 22.0287C15.3769 22.0287 13.5497 20.4959 13.5497 17.6727C13.5497 14.8495 15.3761 13.1503 18.0465 13.1503C19.1193 13.1503 19.7969 13.3799 20.0905 13.5335L19.8225 14.4407C19.4009 14.2367 18.8009 14.0831 18.0849 14.0831C16.0665 14.0831 14.7249 15.3735 14.7249 17.6343C14.7249 19.7423 15.9385 21.0967 18.0337 21.0967C18.7105 21.0967 19.4009 20.9559 19.8481 20.7391L20.0777 21.6207V21.6199Z" fill="#020202"/>
<path d="M28.3299 17.5061C28.3299 20.4701 26.5283 22.0413 24.3315 22.0413C22.1347 22.0413 20.4611 20.2781 20.4611 17.6725C20.4611 14.9389 22.1603 13.1501 24.4595 13.1501C26.7587 13.1501 28.3299 14.9517 28.3299 17.5061ZM21.6491 17.6461C21.6491 19.4853 22.6459 21.1333 24.3955 21.1333C26.1451 21.1333 27.1547 19.5109 27.1547 17.5565C27.1547 15.8445 26.2603 14.0565 24.4083 14.0565C22.5563 14.0565 21.6491 15.7557 21.6491 17.6461Z" fill="#020202"/>
<path d="M29.5433 13.3919C30.0801 13.3023 30.7825 13.2255 31.6769 13.2255C32.7753 13.2255 33.5801 13.4807 34.0913 13.9407C34.5641 14.3495 34.8449 14.9751 34.8449 15.7423C34.8449 16.5095 34.6153 17.1351 34.1809 17.5815C33.5929 18.2071 32.6353 18.5271 31.5489 18.5271C31.2169 18.5271 30.9105 18.5143 30.6545 18.4503V21.8999H29.5433V13.3919ZM30.6545 17.5439C30.8969 17.6079 31.2041 17.6335 31.5745 17.6335C32.9161 17.6335 33.7337 16.9823 33.7337 15.7943C33.7337 14.6063 32.9289 14.1079 31.7025 14.1079C31.2169 14.1079 30.8465 14.1463 30.6553 14.1975V17.5447L30.6545 17.5439Z" fill="#020202"/>
</g>
<defs>
<clipPath id="clip0_4004_57048">
<rect width="40" height="40" fill="white"/>
</clipPath>
</defs>
</svg>

<svg xmlns="http://www.w3.org/2000/svg" width="40" height="40" fill="none" viewBox="0 0 40 40"><g clip-path="url(#a)"><path fill="#FDF6EF" d="M20 40c11.046 0 20-8.954 20-20S31.046 0 20 0 0 8.954 0 20s8.954 20 20 20"/><path fill="#DF9806" d="M6.069 19.608q0 .525.038 1.04h3.885q-.053-.516-.054-1.04a9.95 9.95 0 0 1 2.933-7.08 10 10 0 0 1 2.475-1.816V6.508c-5.404 1.9-9.278 7.047-9.278 13.1"/><path fill="#176092" d="M12.871 26.687a9.94 9.94 0 0 1-2.879-6.04H6.107a13.8 13.8 0 0 0 2.8 7.371h5.607a10 10 0 0 1-1.644-1.331z"/><path fill="#186092" d="M27.03 26.688c-.505.506-1.056.95-1.643 1.331h5.607a13.9 13.9 0 0 0 2.022-3.71h-4.22a10 10 0 0 1-1.765 2.38"/><path fill="#C3221A" d="M19.95 29.62a9.94 9.94 0 0 1-5.436-1.6H8.906a13.86 13.86 0 0 0 11.045 5.471c4.504 0 8.508-2.146 11.043-5.472h-5.607a9.94 9.94 0 0 1-5.436 1.602"/><path fill="#020202" d="M20.078 21.62c-.41.204-1.227.409-2.274.409-2.427 0-4.254-1.533-4.254-4.356s1.826-4.523 4.497-4.523c1.072 0 1.75.23 2.043.383l-.267.908c-.422-.204-1.022-.358-1.738-.358-2.018 0-3.36 1.29-3.36 3.551 0 2.108 1.213 3.463 3.309 3.463.677 0 1.367-.141 1.814-.358zm8.252-4.114c0 2.964-1.802 4.535-3.998 4.535s-3.87-1.763-3.87-4.369c0-2.733 1.698-4.522 3.997-4.522s3.87 1.802 3.87 4.356m-6.68.14c0 1.84.996 3.487 2.746 3.487s2.759-1.622 2.759-3.576c0-1.712-.895-3.5-2.747-3.5s-2.759 1.699-2.759 3.59m7.895-4.255a13 13 0 0 1 2.134-.166c1.098 0 1.903.255 2.414.715.473.409.754 1.034.754 1.801s-.23 1.393-.664 1.84c-.588.625-1.546.945-2.632.945-.332 0-.639-.013-.895-.077v3.45h-1.11zm1.111 4.152c.243.064.55.09.92.09 1.342 0 2.16-.652 2.16-1.84s-.805-1.686-2.032-1.686c-.485 0-.856.038-1.047.09v3.347z"/></g><defs><clipPath id="a"><path fill="#fff" d="M0 0h40v40H0z"/></clipPath></defs></svg>
